X:0873
T:Dundee Lassie.
M:C
L:1/8
Q:1/4=120
I: ||
N:bar 11 printed |A>GF>E Ddd3/e/f/|
Z:Jack Campin * www.campin.me.uk * 2009
K:D
A2|d3   e f>ge>f|d2 B2  B2 cd|A3   B A>FE>D      |E4z2
A2|d3   e f>ge>f|d2 B2  B2 cd|A3   B A<FE>F      |D4z2
z2|A>GF>G Ad3   |B>AG>A Bd3  |A>GF>E Dd`d3/e//f//|e4z2
f<a|d3  B c3   A|d2 F2 HB2 B2|AG`FG  Ad`ef       |d6|]

